packages/dnb-eufemia/assets/icons/cloud_rain_medium.svg

<svg width="24" height="24" viewBox="0 0 24 24" fill="none" xmlns="http://www.w3.org/2000/svg">
<path d="M5.06642 7.08701L5.2056 7.82398L5.06642 7.08701ZM18.9377 9.01201L18.1957 8.90256C18.1624 9.12825 18.2337 9.35682 18.3893 9.52363C18.5449 9.69044 18.768 9.77735 18.9954 9.75979L18.9377 9.01201ZM8.12631 8.32039C8.48545 8.52678 8.94389 8.40295 9.15027 8.04381C9.35666 7.68467 9.23283 7.22623 8.87369 7.01985L8.12631 8.32039ZM6.21441 20.0303C6.50731 19.7374 6.50731 19.2626 6.21441 18.9697C5.92152 18.6768 5.44665 18.6768 5.15375 18.9697L6.21441 20.0303ZM3.46967 20.6538C3.17678 20.9466 3.17678 21.4215 3.46967 21.7144C3.76256 22.0073 4.23744 22.0073 4.53033 21.7144L3.46967 20.6538ZM10.7144 20.0303C11.0073 19.7374 11.0073 19.2626 10.7144 18.9697C10.4215 18.6768 9.94664 18.6768 9.65375 18.9697L10.7144 20.0303ZM6.46967 22.1538C6.17678 22.4466 6.17678 22.9215 6.46967 23.2144C6.76256 23.5073 7.23744 23.5073 7.53033 23.2144L6.46967 22.1538ZM15.2144 20.0303C15.5073 19.7374 15.5073 19.2626 15.2144 18.9697C14.9215 18.6768 14.4466 18.6768 14.1538 18.9697L15.2144 20.0303ZM12.4697 20.6538C12.1768 20.9466 12.1768 21.4215 12.4697 21.7144C12.7626 22.0073 13.2374 22.0073 13.5303 21.7144L12.4697 20.6538ZM19.7144 20.0303C20.0073 19.7374 20.0073 19.2626 19.7144 18.9697C19.4215 18.6768 18.9466 18.6768 18.6538 18.9697L19.7144 20.0303ZM15.4697 22.1538C15.1768 22.4466 15.1768 22.9215 15.4697 23.2144C15.7626 23.5073 16.2374 23.5073 16.5303 23.2144L15.4697 22.1538ZM6 16.25C3.65279 16.25 1.75 14.3472 1.75 12H0.25C0.25 15.1756 2.82436 17.75 6 17.75V16.25ZM22.5 13C22.5 14.7949 21.0449 16.25 19.25 16.25V17.75C21.8734 17.75 24 15.6234 24 13H22.5ZM6 17.75H19.25V16.25H6V17.75ZM1.75 12C1.75 9.92481 3.23807 8.19557 5.2056 7.82398L4.92723 6.35003C2.26427 6.85297 0.25 9.19045 0.25 12H1.75ZM5.81155 7.17232C6.1951 3.8223 9.18356 1.75 12 1.75V0.25C8.54448 0.25 4.8049 2.7777 4.32128 7.00169L5.81155 7.17232ZM12 1.75C16.1428 1.75 18.6996 5.48681 18.1957 8.90256L19.6797 9.12146C20.3004 4.91319 17.1692 0.25 12 0.25V1.75ZM18.9954 9.75979C20.8494 9.61661 22.5 11.1369 22.5 13H24C24 10.259 21.6014 8.05407 18.8799 8.26424L18.9954 9.75979ZM5.2056 7.82398C6.20057 7.63606 7.24988 7.81674 8.12631 8.32039L8.87369 7.01985C7.68971 6.33946 6.27694 6.09512 4.92723 6.35003L5.2056 7.82398ZM5.15375 18.9697L3.46967 20.6538L4.53033 21.7144L6.21441 20.0303L5.15375 18.9697ZM9.65375 18.9697L6.46967 22.1538L7.53033 23.2144L10.7144 20.0303L9.65375 18.9697ZM14.1538 18.9697L12.4697 20.6538L13.5303 21.7144L15.2144 20.0303L14.1538 18.9697ZM18.6538 18.9697L15.4697 22.1538L16.5303 23.2144L19.7144 20.0303L18.6538 18.9697Z" fill="black"/>
</svg>

<svg width="24" height="24" viewBox="0 0 24 24" fill="none" xmlns="http://www.w3.org/2000/svg"><path d="m5.066 7.087.14.737-.14-.737Zm13.872 1.925-.742-.11a.75.75 0 0 0 .8.858l-.058-.748ZM8.126 8.32a.75.75 0 1 0 .748-1.3l-.748 1.3ZM6.214 20.03a.75.75 0 1 0-1.06-1.06l1.06 1.06Zm-2.744.624a.75.75 0 1 0 1.06 1.06l-1.06-1.06Zm7.244-.624a.75.75 0 1 0-1.06-1.06l1.06 1.06ZM6.47 22.154a.75.75 0 1 0 1.06 1.06l-1.06-1.06Zm8.744-2.124a.75.75 0 1 0-1.06-1.06l1.06 1.06Zm-2.744.624a.75.75 0 1 0 1.06 1.06l-1.06-1.06Zm7.244-.624a.75.75 0 1 0-1.06-1.06l1.06 1.06Zm-4.244 2.124a.75.75 0 1 0 1.06 1.06l-1.06-1.06ZM6 16.25A4.25 4.25 0 0 1 1.75 12H.25A5.75 5.75 0 0 0 6 17.75v-1.5ZM22.5 13a3.25 3.25 0 0 1-3.25 3.25v1.5A4.75 4.75 0 0 0 24 13h-1.5ZM6 17.75h13.25v-1.5H6v1.5ZM1.75 12a4.252 4.252 0 0 1 3.456-4.176L4.927 6.35A5.752 5.752 0 0 0 .25 12h1.5Zm4.062-4.828C6.195 3.822 9.184 1.75 12 1.75V.25c-3.456 0-7.195 2.528-7.679 6.752l1.49.17ZM12 1.75c4.143 0 6.7 3.737 6.196 7.153l1.484.218C20.3 4.913 17.17.25 12 .25v1.5Zm6.995 8.01C20.85 9.617 22.5 11.137 22.5 13H24c0-2.741-2.399-4.946-5.12-4.736l.115 1.496ZM5.205 7.824a4.301 4.301 0 0 1 2.921.496l.748-1.3a5.801 5.801 0 0 0-3.947-.67l.279 1.474Zm-.05 11.146L3.47 20.654l1.06 1.06 1.684-1.684-1.06-1.06Zm4.5 0L6.47 22.154l1.06 1.06 3.184-3.184-1.06-1.06Zm4.5 0-1.684 1.684 1.06 1.06 1.684-1.684-1.06-1.06Zm4.5 0-3.184 3.184 1.06 1.06 3.184-3.184-1.06-1.06Z" fill="#000"/></svg>
